X: 1
T: a Rose among the Thorns 
P: Play (AABc)x3
C: John Stapledon 1767
R: waltz
Z: 2015 John Chambers <jc:trillian.mit.edu>
M: 3/4
L: 1/8
K: G
G2 "A"|\
"G"G3 F GA | "Em"BA GA Bc | "D"d3 e dc | "G"B4 B2 |\
"Bm"d2 de dc | "E7"B4 B2 | "Am"c2 cd cB | "D7"A4 D2 |
"G"G3 F GA | "G7"BA GA BG | "C"c4 d2 | "A7/c#"e3 f g2 |\
"D"d2 de dc | "Em"B2GA BG | "D7"c2 A2 F2 | "G"G4 :|
d2 "B"|\
"G"g3 a bg | "Bm"f4 B2 | "Em"e3 f ge | "G"d4 G2 |\
"Am"c3 B cd | "C"e2 f2 g2 | "A7"e2 a2 g2 | "D7"f2 e2 |]
d2 "C"|\
"G"g3 f"C"eg | "Bm"f4 B2 | "C"e3 d ce | "G"d4 G2 |\
"Am"c3 B Ac | "Em"BA GA BG | "D7"c2 A2 F2 | "G"G4 |]
